build/img/logo.svg

<svg width="132" height="120" viewBox="16 12 132 120" fill="none" xmlns="http://www.w3.org/2000/svg">
<g>
<rect x="16" y="12" width="132" height="120" fill="white"/>
</g>
<path d="M83.9943 79.7575C80.7043 79.7512 77.4512 79.0748 74.4396 77.7709C71.4279 76.4669 68.7228 74.5637 66.4942 72.1808C66.3702 72.0639 66.2719 71.9233 66.2052 71.7675C66.1386 71.6117 66.1052 71.4441 66.1069 71.2751C66.1087 71.1061 66.1456 70.9393 66.2155 70.7849C66.2854 70.6305 66.3867 70.4918 66.5131 70.3775C66.6395 70.2632 66.7885 70.1756 66.9506 70.1202C67.1128 70.0648 67.2848 70.0427 67.456 70.0553C67.6272 70.0679 67.7939 70.115 67.9459 70.1936C68.0979 70.2722 68.2319 70.3806 68.3397 70.5122C71.1623 73.5413 74.8292 75.6843 78.8819 76.6731C82.9346 77.662 87.1934 77.453 91.1262 76.0722C95.0589 74.6914 98.4911 72.2001 100.994 68.9096C103.497 65.6191 104.959 61.6753 105.198 57.5712C105.217 57.2454 105.367 56.9405 105.614 56.7228C105.861 56.5052 106.185 56.3925 106.516 56.4094C106.681 56.4188 106.842 56.4602 106.991 56.5312C107.14 56.6023 107.273 56.7015 107.382 56.8232C107.492 56.9449 107.576 57.0868 107.63 57.2406C107.684 57.3944 107.706 57.5571 107.696 57.7195C107.347 63.6767 104.698 69.2771 100.292 73.3742C95.8853 77.4712 90.055 79.7548 83.9943 79.7575ZM62.8662 64.0973C63.184 64.0005 63.4499 63.7833 63.6052 63.4936C63.7606 63.2039 63.7928 62.8654 63.6947 62.5523C62.3494 58.2365 62.4587 53.6079 64.0063 49.3583C65.5538 45.1086 68.4565 41.4662 72.2806 38.9751C76.1047 36.4841 80.6448 35.2783 85.2225 35.5379C89.8002 35.7975 94.1697 37.5086 97.678 40.4154C97.9327 40.6269 98.2623 40.73 98.5943 40.7022C98.9262 40.6744 99.2334 40.5179 99.4481 40.2671C99.6629 40.0163 99.7676 39.6918 99.7394 39.365C99.7111 39.0382 99.5522 38.7358 99.2975 38.5243C95.3743 35.273 90.4878 33.3591 85.3683 33.0687C80.2488 32.7782 75.1713 34.1269 70.8948 36.913C66.6183 39.6991 63.3724 43.7731 61.6425 48.526C59.9125 53.2788 59.7913 58.4553 61.2969 63.2815C61.3953 63.5945 61.6158 63.8562 61.9101 64.0092C62.2043 64.1622 62.5482 64.1939 62.8662 64.0973ZM56.6897 75.7281C68.7358 65.6218 83.1372 58.6108 98.607 55.3217C98.6621 55.3094 98.7195 55.3119 98.7732 55.329C98.8269 55.3462 98.875 55.3773 98.9122 55.419C98.9495 55.4608 98.9746 55.5117 98.985 55.5663C98.9953 55.621 98.9905 55.6774 98.9711 55.7295L96.8369 60.8961C96.8019 60.9778 96.7958 61.0687 96.8195 61.1543C96.8433 61.2398 96.8956 61.315 96.9681 61.3678C97.0405 61.4206 97.1288 61.4478 97.2189 61.4452C97.3089 61.4426 97.3955 61.4103 97.4646 61.3534L114.149 47.8315C114.254 47.7428 114.333 47.6277 114.377 47.4985C114.421 47.3692 114.428 47.2307 114.399 47.0975C114.369 46.9644 114.303 46.8416 114.208 46.7424C114.114 46.6431 113.993 46.5709 113.86 46.5337L92.9076 40.9716C92.8203 40.9501 92.7282 40.958 92.646 40.9941C92.5638 41.0302 92.4964 41.0924 92.4544 41.1708C92.4124 41.2491 92.3984 41.3391 92.4145 41.4263C92.4307 41.5134 92.4761 41.5927 92.5435 41.6514L97.3893 45.619C97.4301 45.6523 97.4612 45.6955 97.4796 45.7444C97.498 45.7932 97.503 45.846 97.4941 45.8974C97.4852 45.9488 97.4627 45.9969 97.4289 46.037C97.395 46.0771 97.3511 46.1077 97.3014 46.1258C93.4599 47.4854 68.4275 56.842 55.6352 74.8011C55.5103 74.9388 55.4461 75.1197 55.4567 75.304C55.4673 75.4882 55.5518 75.6608 55.6916 75.7838C55.8315 75.9067 56.0152 75.9699 56.2024 75.9595C56.3895 75.949 56.5648 75.8658 56.6897 75.7281Z" fill="url(#paint0_linear)"/>
<path d="M41.4439 86.3122C42.5786 86.3122 43.5698 86.5491 44.4177 87.0229C45.2656 87.4843 45.914 88.1389 46.3629 88.9868C46.8242 89.8346 47.0549 90.801 47.0549 91.8858C47.0549 93.3571 46.6746 94.7037 45.914 95.9257C45.1534 97.1351 44.1372 98.0952 42.8653 98.806C41.5935 99.5042 40.2344 99.8533 38.788 99.8533C37.6908 99.8533 36.7057 99.6601 35.8329 99.2735C34.9726 98.8745 34.2868 98.2885 33.7756 97.5154L36.0574 95.7199C36.7681 96.7548 37.7905 97.2723 39.1247 97.2723C40.1222 97.2723 41.0262 96.9855 41.8367 96.4119C42.6471 95.8384 43.2332 95.0902 43.5948 94.1676H38.1895L38.6384 91.8484H43.9314C43.8566 90.9381 43.5387 90.2212 42.9776 89.6975C42.4289 89.1613 41.6995 88.8932 40.7893 88.8932C39.4551 88.8932 38.2332 89.4107 37.1234 90.4456L35.5524 88.6501C36.3005 87.902 37.1858 87.3284 38.2082 86.9294C39.2307 86.5179 40.3092 86.3122 41.4439 86.3122ZM57.2635 92.9518L60.3308 99.6289H57.0765L54.7198 94.3359H52.4942L51.4281 99.6289H48.3981L51.0166 86.5366H54.0465L52.9804 91.8296H54.9817L59.4892 86.5366H62.8932L57.2635 92.9518ZM68.9505 99.8533C67.6413 99.8533 66.4942 99.6164 65.5091 99.1426C64.5366 98.6688 63.7884 98.0017 63.2648 97.1414C62.7411 96.281 62.4792 95.2898 62.4792 94.1676C62.4792 92.6838 62.8159 91.3496 63.4892 90.1651C64.175 88.968 65.1351 88.0267 66.3695 87.3409C67.6039 86.6551 69.0191 86.3122 70.6151 86.3122C71.7872 86.3122 72.8221 86.5117 73.7199 86.9107C74.6176 87.3097 75.2972 87.8833 75.7585 88.6314L73.5702 90.4269C72.872 89.4045 71.8184 88.8932 70.4094 88.8932C69.4493 88.8932 68.6014 89.1177 67.8658 89.5666C67.1301 90.0154 66.5565 90.6264 66.1451 91.3995C65.7461 92.1725 65.5466 93.0329 65.5466 93.9805C65.5466 94.9905 65.8645 95.7947 66.5004 96.3932C67.1488 96.9793 68.0528 97.2723 69.2124 97.2723C70.5964 97.2723 71.756 96.7673 72.6912 95.7573L74.4867 97.5903C73.1899 99.099 71.3446 99.8533 68.9505 99.8533ZM90.8934 86.5366L88.275 99.6289H85.2824L87.3585 89.0055H81.4483L79.3535 99.6289H76.361L78.9794 86.5366H90.8934ZM97.0379 88.968L96.4768 91.8109H102.555L102.088 94.1676H95.9905L95.392 97.1975H102.537L102.032 99.6289H91.8945L94.5129 86.5366H104.407L103.902 88.968H97.0379ZM112.69 86.5366C114.323 86.5366 115.582 86.8982 116.468 87.6214C117.366 88.3321 117.814 89.3296 117.814 90.6139C117.814 91.7112 117.553 92.6713 117.029 93.4942C116.518 94.3047 115.782 94.9282 114.822 95.3646C113.874 95.801 112.752 96.0192 111.455 96.0192H108.538L107.827 99.6289H104.778L107.397 86.5366H112.69ZM111.586 93.5503C112.596 93.5503 113.375 93.3197 113.924 92.8583C114.473 92.397 114.747 91.7361 114.747 90.8758C114.747 90.2523 114.535 89.7848 114.111 89.473C113.7 89.1613 113.101 89.0055 112.316 89.0055H109.94L109.024 93.5503H111.586ZM130.516 89.0055H126.289L124.195 99.6289H121.202L123.297 89.0055H119.163L119.65 86.5366H131.003L130.516 89.0055Z" fill="#7B303E"/>
<path d="M87.8354 105.835V111.072H86.8778V106.658H84.813L84.7681 107.968C84.7431 108.701 84.6833 109.297 84.5885 109.756C84.4938 110.209 84.3416 110.556 84.1322 110.795C83.9227 111.03 83.6334 111.147 83.2643 111.147C83.1347 111.147 82.9576 111.122 82.7332 111.072L82.8005 110.227C82.8653 110.247 82.9401 110.257 83.0249 110.257C83.3292 110.257 83.5436 110.077 83.6683 109.718C83.798 109.354 83.8778 108.783 83.9077 108.005L83.9825 105.835H87.8354ZM92.0318 111.147C91.4982 111.147 91.0169 111.032 90.5879 110.803C90.159 110.569 89.8224 110.247 89.578 109.838C89.3336 109.424 89.2114 108.963 89.2114 108.454C89.2114 107.945 89.3336 107.486 89.578 107.077C89.8224 106.663 90.159 106.342 90.5879 106.112C91.0169 105.878 91.4982 105.761 92.0318 105.761C92.5655 105.761 93.0468 105.878 93.4757 106.112C93.9047 106.342 94.2413 106.661 94.4857 107.07C94.7301 107.479 94.8523 107.94 94.8523 108.454C94.8523 108.968 94.7301 109.429 94.4857 109.838C94.2413 110.247 93.9047 110.569 93.4757 110.803C93.0468 111.032 92.5655 111.147 92.0318 111.147ZM92.0318 110.294C92.381 110.294 92.6952 110.217 92.9745 110.062C93.2538 109.903 93.4732 109.683 93.6328 109.404C93.7924 109.12 93.8722 108.803 93.8722 108.454C93.8722 108.105 93.7924 107.79 93.6328 107.511C93.4732 107.227 93.2538 107.007 92.9745 106.853C92.6952 106.693 92.381 106.613 92.0318 106.613C91.6827 106.613 91.3685 106.693 91.0892 106.853C90.8099 107.007 90.5904 107.227 90.4308 107.511C90.2712 107.79 90.1914 108.105 90.1914 108.454C90.1914 108.803 90.2712 109.12 90.4308 109.404C90.5904 109.683 90.8099 109.903 91.0892 110.062C91.3685 110.217 91.6827 110.294 92.0318 110.294ZM99.7804 106.658H97.1844L97.1919 111.072H96.2343V105.835H99.7879L99.7804 106.658ZM100.91 105.835H101.867V109.554L104.68 105.835H105.586V111.072H104.628V107.362L101.815 111.072H100.91V105.835ZM109.762 111.147C109.233 111.147 108.755 111.032 108.326 110.803C107.902 110.569 107.568 110.247 107.323 109.838C107.084 109.429 106.964 108.968 106.964 108.454C106.964 107.94 107.086 107.479 107.331 107.07C107.575 106.661 107.909 106.342 108.333 106.112C108.762 105.878 109.241 105.761 109.77 105.761C110.199 105.761 110.59 105.835 110.944 105.985C111.298 106.135 111.598 106.352 111.842 106.636L111.214 107.227C110.834 106.818 110.368 106.613 109.815 106.613C109.455 106.613 109.134 106.693 108.849 106.853C108.565 107.007 108.343 107.224 108.184 107.504C108.024 107.783 107.944 108.1 107.944 108.454C107.944 108.808 108.024 109.125 108.184 109.404C108.343 109.683 108.565 109.903 108.849 110.062C109.134 110.217 109.455 110.294 109.815 110.294C110.368 110.294 110.834 110.087 111.214 109.673L111.842 110.272C111.598 110.556 111.296 110.773 110.937 110.923C110.583 111.072 110.191 111.147 109.762 111.147ZM116.786 106.658H115.051V111.072H114.086V106.658H112.357V105.835H116.786V106.658ZM117.932 105.835H118.889V109.554L121.702 105.835H122.608V111.072H121.65V107.362L118.837 111.072H117.932V105.835ZM126.305 108.865H125.333V111.072H124.375V105.835H125.333V108.027H126.335L127.839 105.835H128.871L127.083 108.372L128.939 111.072H127.839L126.305 108.865Z" fill="#7D868C"/>
<defs>
<filter id="filter0_d" x="0" y="0" width="164" height="152" filterUnits="userSpaceOnUse" color-interpolation-filters="sRGB">
<feFlood flood-opacity="0" result="BackgroundImageFix"/>
<feColorMatrix in="SourceAlpha" type="matrix" values="0 0 0 0 0 0 0 0 0 0 0 0 0 0 0 0 0 0 127 0"/>
<feOffset dy="4"/>
<feGaussianBlur stdDeviation="8"/>
<feColorMatrix type="matrix" values="0 0 0 0 0.532751 0 0 0 0 0.528098 0 0 0 0 0.528098 0 0 0 0.15 0"/>
<feBlend mode="normal" in2="BackgroundImageFix" result="effect1_dropShadow"/>
<feBlend mode="normal" in="SourceGraphic" in2="effect1_dropShadow" result="shape"/>
</filter>
<linearGradient id="paint0_linear" x1="55.5096" y1="56.3846" x2="114.425" y2="56.3846" gradientUnits="userSpaceOnUse">
<stop stop-color="#D0082D"/>
<stop offset="1" stop-color="#9D2037"/>
</linearGradient>
</defs>
</svg>

<svg width="132" height="120" viewBox="16 12 132 120" fill="none" xmlns="http://www.w3.org/2000/svg"><path fill="#fff" d="M16 12h132v120H16z"/><path d="M83.994 79.757a24.17 24.17 0 01-9.554-1.986 23.85 23.85 0 01-7.946-5.59 1.237 1.237 0 01-.387-.906 1.22 1.22 0 01.406-.898 1.26 1.26 0 01.943-.322 1.27 1.27 0 01.884.457 21.309 21.309 0 0010.542 6.161c4.053.989 8.311.78 12.244-.6a21.223 21.223 0 009.868-7.163 20.714 20.714 0 004.204-11.339c.019-.326.169-.63.416-.848a1.267 1.267 0 011.377-.192 1.243 1.243 0 01.639.71c.054.153.076.316.066.478-.349 5.958-2.998 11.558-7.404 15.655-4.407 4.097-10.237 6.38-16.298 6.383zm-21.128-15.66a1.25 1.25 0 00.74-.603c.155-.29.187-.629.089-.942a20.607 20.607 0 01.311-13.194 20.967 20.967 0 018.275-10.383 21.492 21.492 0 0112.941-3.437c4.578.26 8.948 1.97 12.456 4.877a1.27 1.27 0 001.77-.148 1.224 1.224 0 00-.15-1.743 23.959 23.959 0 00-13.93-5.455 24.033 24.033 0 00-14.473 3.844 23.445 23.445 0 00-9.252 11.613 23.043 23.043 0 00-.346 14.755c.098.313.319.575.613.728.294.153.638.185.956.088zM56.69 75.728c12.046-10.106 26.447-17.117 41.917-20.406a.319.319 0 01.305.097.308.308 0 01.06.31l-2.135 5.167a.39.39 0 00.131.472.406.406 0 00.497-.015l16.684-13.522a.755.755 0 00.25-.734.762.762 0 00-.539-.564l-20.952-5.561a.408.408 0 00-.454.199.39.39 0 00.09.48l4.845 3.968a.297.297 0 01.105.278.295.295 0 01-.193.229C93.46 47.486 68.427 56.842 55.635 74.8a.69.69 0 00.057.983.714.714 0 00.998-.056z" fill="url(#paint0_linear)"/><path d="M41.444 86.312c1.135 0 2.126.237 2.974.71a4.69 4.69 0 011.945 1.965c.461.848.692 1.814.692 2.899 0 1.471-.38 2.818-1.141 4.04a8.35 8.35 0 01-3.049 2.88 8.343 8.343 0 01-4.077 1.047c-1.097 0-2.082-.193-2.955-.58a4.871 4.871 0 01-2.057-1.758l2.281-1.795c.711 1.035 1.733 1.552 3.068 1.552.997 0 1.901-.287 2.712-.86a4.872 4.872 0 001.758-2.244H38.19l.448-2.32h5.293c-.074-.91-.392-1.627-.953-2.15-.55-.537-1.279-.805-2.189-.805-1.334 0-2.556.518-3.666 1.553l-1.57-1.796a7.632 7.632 0 012.655-1.72 8.585 8.585 0 013.236-.618zm15.82 6.64l3.067 6.677h-3.255l-2.356-5.293h-2.226l-1.066 5.293h-3.03l2.619-13.092h3.03L52.98 91.83h2.002l4.507-5.293h3.404l-5.63 6.415zm11.687 6.901c-1.31 0-2.457-.237-3.442-.71-.972-.474-1.72-1.141-2.244-2.002-.524-.86-.786-1.851-.786-2.973 0-1.484.337-2.818 1.01-4.003a7.38 7.38 0 012.88-2.824c1.235-.686 2.65-1.029 4.246-1.029 1.172 0 2.207.2 3.105.599.898.399 1.577.972 2.038 1.72l-2.188 1.796c-.698-1.023-1.752-1.534-3.16-1.534-.96 0-1.809.225-2.544.674a4.682 4.682 0 00-1.72 1.833c-.4.772-.6 1.633-.6 2.58 0 1.01.319 1.815.954 2.413.649.586 1.553.88 2.712.88 1.384 0 2.544-.506 3.48-1.516l1.795 1.833c-1.297 1.509-3.142 2.263-5.536 2.263zm21.942-13.316l-2.618 13.092h-2.993l2.077-10.624h-5.91L79.352 99.63H76.36l2.618-13.092h11.914zm6.145 2.431l-.561 2.843h6.078l-.467 2.357h-6.097l-.599 3.03h7.145l-.505 2.43H91.894l2.619-13.091h9.894l-.505 2.431h-6.864zm15.652-2.431c1.633 0 2.892.361 3.778 1.084.898.711 1.346 1.709 1.346 2.993 0 1.097-.261 2.057-.785 2.88-.511.81-1.247 1.434-2.207 1.87-.948.437-2.07.655-3.367.655h-2.917l-.711 3.61h-3.049l2.619-13.092h5.293zm-1.104 7.013c1.01 0 1.789-.23 2.338-.692.549-.461.823-1.122.823-1.982 0-.624-.212-1.091-.636-1.403-.411-.312-1.01-.468-1.795-.468h-2.376l-.916 4.545h2.562zm18.93-4.544h-4.227l-2.094 10.623h-2.993l2.095-10.624h-4.134l.487-2.468h11.353l-.487 2.468z" fill="#7B303E"/><path d="M87.835 105.835v5.237h-.957v-4.414h-2.065l-.045 1.31c-.025.733-.085 1.329-.18 1.788-.094.453-.246.8-.456 1.039-.21.235-.499.352-.868.352a2.6 2.6 0 01-.53-.075l.067-.845c.064.02.14.03.224.03.304 0 .519-.18.643-.539.13-.364.21-.935.24-1.713l.075-2.17h3.852zm4.197 5.312a3.018 3.018 0 01-1.444-.344 2.608 2.608 0 01-1.01-.965 2.67 2.67 0 01-.367-1.384c0-.509.123-.968.367-1.377a2.546 2.546 0 011.01-.965c.429-.234.91-.351 1.444-.351.534 0 1.015.117 1.444.351.429.23.765.549 1.01.958.244.409.366.87.366 1.384 0 .514-.122.975-.366 1.384a2.608 2.608 0 01-1.01.965 3.02 3.02 0 01-1.444.344zm0-.853c.349 0 .663-.077.943-.232a1.74 1.74 0 00.658-.658c.16-.284.24-.601.24-.95s-.08-.664-.24-.943a1.669 1.669 0 00-.658-.658c-.28-.16-.594-.24-.943-.24-.35 0-.663.08-.943.24a1.66 1.66 0 00-.658.658c-.16.279-.24.594-.24.943s.08.666.24.95c.16.279.379.499.658.658.28.155.594.232.943.232zm7.748-3.636h-2.596l.008 4.414h-.958v-5.237h3.554l-.008.823zm1.13-.823h.957v3.719l2.813-3.719h.906v5.237h-.958v-3.71l-2.813 3.71h-.905v-5.237zm8.852 5.312a3 3 0 01-1.436-.344 2.628 2.628 0 01-1.003-.965 2.691 2.691 0 01-.359-1.384c0-.514.122-.975.367-1.384a2.572 2.572 0 011.002-.958 2.951 2.951 0 011.437-.351c.429 0 .82.074 1.174.224.354.15.654.367.898.651l-.628.591a1.835 1.835 0 00-1.399-.614c-.36 0-.681.08-.966.24a1.66 1.66 0 00-.665.651c-.16.279-.24.596-.24.95s.08.671.24.95c.159.279.381.499.665.658.285.155.606.232.966.232.553 0 1.019-.207 1.399-.621l.628.599a2.387 2.387 0 01-.905.651 3 3 0 01-1.175.224zm7.024-4.489h-1.735v4.414h-.965v-4.414h-1.729v-.823h4.429v.823zm1.146-.823h.957v3.719l2.813-3.719h.906v5.237h-.958v-3.71l-2.813 3.71h-.905v-5.237zm8.373 3.03h-.972v2.207h-.958v-5.237h.958v2.192h1.002l1.504-2.192h1.032l-1.788 2.537 1.856 2.7h-1.1l-1.534-2.207z" fill="#7D868C"/><defs><linearGradient id="paint0_linear" x1="55.51" y1="56.385" x2="114.425" y2="56.385" gradientUnits="userSpaceOnUse"><stop stop-color="#D0082D"/><stop offset="1" stop-color="#9D2037"/></linearGradient><filter id="filter0_d" x="0" y="0" width="164" height="152" filterUnits="userSpaceOnUse" color-interpolation-filters="sRGB"><feFlood flood-opacity="0" result="BackgroundImageFix"/><feColorMatrix in="SourceAlpha" values="0 0 0 0 0 0 0 0 0 0 0 0 0 0 0 0 0 0 127 0"/><feOffset dy="4"/><feGaussianBlur stdDeviation="8"/><feColorMatrix values="0 0 0 0 0.532751 0 0 0 0 0.528098 0 0 0 0 0.528098 0 0 0 0.15 0"/><feBlend in2="BackgroundImageFix" result="effect1_dropShadow"/><feBlend in="SourceGraphic" in2="effect1_dropShadow" result="shape"/></filter></defs></svg>
